svgs/sharp-light/arrow-up-small-big.svg

<svg xmlns="http://www.w3.org/2000/svg" viewBox="0 0 576 512"><!--! Font Awesome Pro 6.6.0 by @fontawesome - https://fontawesome.com License - https://fontawesome.com/license (Commercial License) Copyright 2024 Fonticons, Inc. --><path d="M352 192l-32 0 0-32 0-96 0-32 32 0 96 0 32 0 0 32 0 96 0 32-32 0-96 0zm96-32l0-96-96 0 0 96 96 0zM160 33.4l11.3 11.3 88 88L270.6 144 248 166.6l-11.3-11.3L176 94.6 176 464l0 16-32 0 0-16 0-369.4L83.3 155.3 72 166.6 49.4 144l11.3-11.3 88-88L160 33.4zM320 480l0-32 0-160 0-32 32 0 160 0 32 0 0 32 0 160 0 32-32 0-160 0-32 0zM512 288l-160 0 0 160 160 0 0-160z"/></svg>

<svg xmlns="http://www.w3.org/2000/svg" viewBox="0 0 576 512"><!--! Font Awesome Pro 6.4.0 by @fontawesome - https://fontawesome.com License - https://fontawesome.com/license (Commercial License) Copyright 2023 Fonticons, Inc. --><path d="M352 192H320V160 64 32h32 96 32V64v96 32H448 352zm96-32V64H352v96h96zM160 33.4l11.3 11.3 88 88L270.6 144 248 166.6l-11.3-11.3L176 94.6V464v16H144V464 94.6L83.3 155.3 72 166.6 49.4 144l11.3-11.3 88-88L160 33.4zM320 480V448 288 256h32H512h32v32V448v32H512 352 320zM512 288H352V448H512V288z"/></svg>
